Mono Glyph Icons/misc/misc-unfilled/nearby.svg

<svg height="48" viewBox="0 -960 960 960" width="48" xmlns="http://www.w3.org/2000/svg"><path d="m446-312-134-134q-14-14.36-14-34.18t14-33.82l134-134q14.36-14 34.18-14t33.82 14l134 134q14 14.36 14 34.18t-14 33.82l-134 134q-14.36 14-34.18 14t-33.82-14zm100 219q-15 14-31.5 21t-34.5 7q-17 0-34-6.5t-31-20.5l-323-323q-14-14-21-30.5t-7-34.5q0-18 7-35t21-31l325-324q12-13 29-19.5t34-6.5q17 0 34 6.5t30 19.5l324 324q14 14 21 30.83 7 16.84 7 35.17 0 18.25-7.7 35-7.69 16.75-21.3 30zm-66-88 300-299-300-300-299 300z"/></svg>

<svg xmlns="http://www.w3.org/2000/svg" height="48" viewBox="0 -960 960 960" width="48"><path d="M446-312 312-446q-14-14.36-14-34.18T312-514l134-134q14.36-14 34.18-14T514-648l134 134q14 14.36 14 34.18T648-446L514-312q-14.36 14-34.18 14T446-312ZM546-93q-15 14-31.5 21T480-65q-17 0-34-6.5T415-92L92-415q-14-14-21-30.5T64-480q0-18 7-35t21-31l325-324q12-13 29-19.5t34-6.5q17 0 34 6.5t30 19.5l324 324q14 14 21 30.83 7 16.84 7 35.17 0 18.25-7.7 35-7.69 16.75-21.3 30L546-93Zm-66-88 300-299-300-300-299 300 299 299Z"/></svg>
